src/clients/the-kindy-garden/squarespace-updates/assets/icon-phone.svg

<svg width="19" height="18" viewBox="0 0 19 18" fill="none" xmlns="http://www.w3.org/2000/svg">
<path d="M4.41999 7.79C5.85999 10.62 8.17999 12.94 11.01 14.38L13.21 12.18C13.49 11.9 13.88 11.82 14.23 11.93C15.35 12.3 16.55 12.5 17.8 12.5C18.0652 12.5 18.3196 12.6054 18.5071 12.7929C18.6946 12.9804 18.8 13.2348 18.8 13.5V17C18.8 17.2652 18.6946 17.5196 18.5071 17.7071C18.3196 17.8946 18.0652 18 17.8 18C13.2913 18 8.96729 16.2089 5.77917 13.0208C2.59105 9.8327 0.799988 5.50868 0.799988 1C0.799988 0.734784 0.905345 0.48043 1.09288 0.292893C1.28042 0.105357 1.53477 0 1.79999 0H5.29999C5.5652 0 5.81956 0.105357 6.00709 0.292893C6.19463 0.48043 6.29999 0.734784 6.29999 1C6.29999 2.25 6.49999 3.45 6.86999 4.57C6.97999 4.92 6.89999 5.31 6.61999 5.59L4.41999 7.79Z" fill="black"/>
</svg>

<?xml version="1.0" encoding="utf-8"?>
<!-- Generator: Adobe Illustrator 26.3.1, SVG Export Plug-In . SVG Version: 6.00 Build 0)  -->
<svg version="1.1" id="Layer_1" xmlns="http://www.w3.org/2000/svg" xmlns:xlink="http://www.w3.org/1999/xlink" x="0px" y="0px"
	 viewBox="0 0 19 18" style="enable-background:new 0 0 19 18;" xml:space="preserve">
<path d="M4.4,7.8c1.4,2.8,3.8,5.1,6.6,6.6l2.2-2.2c0.3-0.3,0.7-0.4,1-0.2c1.1,0.4,2.3,0.6,3.6,0.6c0.3,0,0.5,0.1,0.7,0.3
	s0.3,0.4,0.3,0.7V17c0,0.3-0.1,0.5-0.3,0.7S18.1,18,17.8,18c-4.5,0-8.8-1.8-12-5s-5-7.5-5-12c0-0.3,0.1-0.5,0.3-0.7
	C1.3,0.1,1.5,0,1.8,0h3.5C5.6,0,5.8,0.1,6,0.3C6.2,0.5,6.3,0.7,6.3,1c0,1.2,0.2,2.5,0.6,3.6c0.1,0.3,0,0.7-0.2,1L4.4,7.8z"/>
</svg>
